public/avatar/shoe/9.svg

<svg xmlns:xlink="http://www.w3.org/1999/xlink" height="38.3" width="36.05" xmlns="http://www.w3.org/2000/svg"><use height="15.85" transform="translate(9.25 11.95)" width="22.5" xlink:href="#a"/><defs><use height="15.85" width="22.5" xlink:href="#b" id="a"/><g id="b"><path d="M-10.75 3v-.05l.05.15-.05-.1m9.3-9.25q2.55-1.4 5.7-1.05 1.8.15 3.4 1-.4.2-1.2.45l-1.7.4L3-5.3q-1.85-.1-4.45-.95" fill="#004566" fill-rule="evenodd" transform="translate(11.25 7.85)"/><path d="M7.65-6.3 8.7-4.2Q7.3.45 2.35 2.85q-.6-.75-1.55-1Q5.35-.7 6.45-5.85q.8-.25 1.2-.45" fill="#f8f801" fill-rule="evenodd" transform="translate(11.25 7.85)"/><path d="m8.7-4.2 1.85 3.7L9.15.9l-.9.55q-2.1 1.1-5.55 2l-.35-.6Q7.3.45 8.7-4.2M3-5.3l1.75-.15 1.7-.4Q5.35-.7.8 1.85l-1.9-.35.2-.5Q1.3-2.1 3-5.3" fill="#8f8e01" fill-rule="evenodd" transform="translate(11.25 7.85)"/><path d="M10.55-.5q.35 2.75.15 3.05l-.1.15-1.7 1.4-2.65 1.3L2.7 6.5l-.5.1-3.6.7q-4.9.6-8.45-.7l-.55-.3q-.25-.25-.35-3.3l.05.1-.05-.15.25.35.55.3q3.5 1.3 8.4.7l.1-.05L2.1 3.6l.6-.15q3.45-.9 5.55-2l.9-.55 1.4-1.4m-4.3 5.9v-.05q-.25-.9-.2-1.75-.05.85.2 1.75v.05M8.9 2.2v1.9-1.9M-1.45 5.45l.05 1.85-.05-1.85m3.95-.9.2 1.95-.2-1.95" fill="#ccc" fill-rule="evenodd" transform="translate(11.25 7.85)"/><path d="M-10.75 2.95q.2-.8 1.1-1.85l8.2-7.35q2.6.85 4.45.95Q1.3-2.1-.9 1l-.2.5 1.9.35q.95.25 1.55 1l.35.6-.6.15-3.55.65-.1.05q-4.9.6-8.4-.7l-.55-.3-.25-.35" fill="#660" fill-rule="evenodd" transform="translate(11.25 7.85)"/><path d="m8.7-4.2 1.85 3.7q.35 2.75.15 3.05l-.1.15-1.7 1.4-2.65 1.3L2.7 6.5l-.5.1-3.6.7q-4.9.6-8.45-.7l-.55-.3q-.25-.25-.35-3.3v-.05q.2-.8 1.1-1.85l8.2-7.35q2.55-1.4 5.7-1.05 1.8.15 3.4 1L8.7-4.2m.2 8.3V2.2M6.05 3.6q-.05.85.2 1.75v.05m-17-2.45.05.15-.05-.1M2.7 6.5l-.2-1.95M-1.4 7.3l-.05-1.85" fill="none" stroke="#000" stroke-linecap="round" stroke-linejoin="round" transform="translate(11.25 7.85)"/><path d="M-2.6-3.2q.65 0 .85.45.15.5-.2 1.15L-3.1-.5q-.75.5-1.4.5-.65 0-.85-.5-.2-.45.2-1.1L-4-2.75l1.4-.45" fill="#f8f801" fill-rule="evenodd" transform="translate(11.25 7.85)"/></g></defs></svg>

<?xml version="1.0" encoding="UTF-8" standalone="no"?>
<svg xmlns:xlink="http://www.w3.org/1999/xlink" height="38.3px" width="36.05px" xmlns="http://www.w3.org/2000/svg">
  <g transform="matrix(1.0, 0.0, 0.0, 1.0, 23.8, 14.85)">
    <use height="15.85" transform="matrix(1.0, 0.0, 0.0, 1.0, -14.55, -2.9)" width="22.5" xlink:href="#sprite0"/>
  </g>
  <defs>
    <g id="sprite0" transform="matrix(1.0, 0.0, 0.0, 1.0, 11.25, 7.85)">
      <use height="15.85" transform="matrix(1.0, 0.0, 0.0, 1.0, -11.25, -7.85)" width="22.5" xlink:href="#shape0"/>
    </g>
    <g id="shape0" transform="matrix(1.0, 0.0, 0.0, 1.0, 11.25, 7.85)">
      <path d="M-10.75 3.0 L-10.75 2.95 -10.7 3.1 -10.75 3.0 M-1.45 -6.25 Q1.1 -7.65 4.25 -7.3 6.05 -7.15 7.65 -6.3 7.25 -6.1 6.45 -5.85 L4.75 -5.45 3.0 -5.3 Q1.15 -5.4 -1.45 -6.25" fill="#004566" fill-rule="evenodd" stroke="none"/>
      <path d="M7.65 -6.3 L8.7 -4.2 Q7.3 0.45 2.35 2.85 1.75 2.1 0.8 1.85 5.35 -0.7 6.45 -5.85 7.25 -6.1 7.65 -6.3" fill="#f8f801" fill-rule="evenodd" stroke="none"/>
      <path d="M8.7 -4.2 L10.55 -0.5 9.15 0.9 8.25 1.45 Q6.15 2.55 2.7 3.45 L2.35 2.85 Q7.3 0.45 8.7 -4.2 M3.0 -5.3 L4.75 -5.45 6.45 -5.85 Q5.35 -0.7 0.8 1.85 L-1.1 1.5 -0.9 1.0 Q1.3 -2.1 3.0 -5.3" fill="#8f8e01" fill-rule="evenodd" stroke="none"/>
      <path d="M10.55 -0.5 Q10.9 2.25 10.7 2.55 L10.6 2.7 8.9 4.1 6.25 5.4 2.7 6.5 2.2 6.6 -1.4 7.3 Q-6.3 7.9 -9.85 6.6 L-10.4 6.3 Q-10.65 6.05 -10.75 3.0 L-10.7 3.1 -10.75 2.95 -10.5 3.3 -9.95 3.6 Q-6.45 4.9 -1.55 4.3 L-1.45 4.25 2.1 3.6 2.7 3.45 Q6.15 2.55 8.25 1.45 L9.15 0.9 10.55 -0.5 M6.25 5.4 L6.25 5.35 Q6.0 4.45 6.05 3.6 6.0 4.45 6.25 5.35 L6.25 5.4 M8.9 2.2 L8.9 4.1 8.9 2.2 M-1.45 5.45 L-1.4 7.3 -1.45 5.45 M2.5 4.55 L2.7 6.5 2.5 4.55" fill="#cccccc" fill-rule="evenodd" stroke="none"/>
      <path d="M-10.75 2.95 Q-10.55 2.15 -9.65 1.1 L-1.45 -6.25 Q1.15 -5.4 3.0 -5.3 1.3 -2.1 -0.9 1.0 L-1.1 1.5 0.8 1.85 Q1.75 2.1 2.35 2.85 L2.7 3.45 2.1 3.6 -1.45 4.25 -1.55 4.3 Q-6.45 4.9 -9.95 3.6 L-10.5 3.3 -10.75 2.95" fill="#666600" fill-rule="evenodd" stroke="none"/>
      <path d="M8.7 -4.2 L10.55 -0.5 Q10.9 2.25 10.7 2.55 L10.6 2.7 8.9 4.1 6.25 5.4 2.7 6.5 2.2 6.6 -1.4 7.3 Q-6.3 7.9 -9.85 6.6 L-10.4 6.3 Q-10.65 6.05 -10.75 3.0 L-10.75 2.95 Q-10.55 2.15 -9.65 1.1 L-1.45 -6.25 Q1.1 -7.65 4.25 -7.3 6.05 -7.15 7.65 -6.3 L8.7 -4.2 M8.9 4.1 L8.9 2.2 M6.05 3.6 Q6.0 4.45 6.25 5.35 L6.25 5.4 M-10.75 2.95 L-10.7 3.1 -10.75 3.0 M2.7 6.5 L2.5 4.55 M-1.4 7.3 L-1.45 5.45" fill="none" stroke="#000000" stroke-linecap="round" stroke-linejoin="round" stroke-width="1.0"/>
      <path d="M-2.6 -3.2 Q-1.95 -3.2 -1.75 -2.75 -1.6 -2.25 -1.95 -1.6 L-3.1 -0.5 Q-3.85 0.0 -4.5 0.0 -5.15 0.0 -5.35 -0.5 -5.55 -0.95 -5.15 -1.6 L-4.0 -2.75 -2.6 -3.2" fill="#f8f801" fill-rule="evenodd" stroke="none"/>
    </g>
  </defs>
</svg>
